packages/product-components/src/images/networks/eth.svg

<svg width="32" height="32" viewBox="0 0 32 32" fill="none" xmlns="http://www.w3.org/2000/svg">
<style>
@media (prefers-color-scheme: dark) {
    .background {
        fill: #F6F6F6;
    }
    .foreground {
        fill: #1F1F1F;
    }
}
</style>
<path class="background" d="M0 8C0 3.58172 3.58172 0 8 0H24C28.4183 0 32 3.58172 32 8V24C32 28.4183 28.4183 32 24 32H8C3.58172 32 0 28.4183 0 24V8Z" fill="#1F1F1F"/>
<path class="foreground" fill-rule="evenodd" clip-rule="evenodd" d="M10.8648 14.7588C11.4065 13.8374 12.213 12.4653 13.1061 10.9472C14.7062 8.22629 16.0166 5.99984 16.0201 5.99984C16.0237 5.99984 16.9667 7.59874 18.1159 9.55203C18.5089 10.2204 18.9223 10.9234 19.3148 11.591C20.0701 12.8754 20.7483 14.0287 21.0558 14.5524C21.5244 15.3483 21.9035 16.0041 21.8988 16.0088C21.8929 16.0135 21.3384 16.362 20.6649 16.7812C19.6112 17.4394 17.5036 18.7545 16.3651 19.4645L16.0213 19.6788L15.6587 19.4527C15.4597 19.3279 14.9734 19.0241 14.5778 18.7781C13.4181 18.0551 11.4848 16.8495 10.7831 16.4115L10.1332 16.0053L10.165 15.9488C10.1733 15.9353 10.4361 15.4882 10.8648 14.7588ZM16.0121 25.5998C15.9944 25.5821 10.1452 17.2108 10.1452 17.2026C10.1452 17.199 10.1652 17.2085 10.1899 17.2238C10.9682 17.7112 16.0015 20.849 16.0121 20.8537C16.0203 20.856 17.3484 20.0354 18.9626 19.0275C20.578 18.0197 21.899 17.1967 21.9014 17.199C21.9026 17.2014 20.5815 19.0947 18.965 21.4082C16.7256 24.6131 16.0227 25.6092 16.0121 25.5998Z" fill="#F6F6F6"/>
</svg>

<svg xmlns="http://www.w3.org/2000/svg" width="32" height="32" viewBox="0 0 32 32" fill="none">
    <path class="bg" fill="#1F1F1F" d="M0 8a8 8 0 0 1 8-8h16a8 8 0 0 1 8 8v16a8 8 0 0 1-8 8H8a8 8 0 0 1-8-8z"/>
    <path class="fg" fill="#F6F6F6" fill-rule="evenodd" d="m10.865 14.759 2.241-3.812C14.706 8.227 16.016 6 16.02 6s.947 1.599 2.096 3.552l1.199 2.039 1.74 2.961c.47.796.849 1.452.844 1.457s-.56.353-1.234.772l-4.3 2.684-.344.214-.362-.226-1.081-.675-3.795-2.366-.65-.407.032-.056zm5.147 10.84a3857 3857 0 0 1-5.867-8.396c0-.004.02.006.045.02.778.488 5.812 3.626 5.822 3.63.008.003 1.336-.818 2.95-1.826a600 600 0 0 1 2.94-1.828c0 .002-1.32 1.896-2.937 4.21-2.24 3.204-2.942 4.2-2.953 4.19" clip-rule="evenodd"/>
</svg>
